X:234
T:Take My Life And Let It Be
%%stretchlast false
M:3/4
L:1/4
K:Eb clef=C1
"^I"[E,GBe] "^I¹"[G,GBe] "^I"[E,GBe] | "^V"[B,FBd]2 [B,DB] | "^♯iii°"[B,DBa] "^V7¹"[DFBa] "^♯iii°"[B,Bda] | "^I"[EBeg]3 | "^I¹"[GBeb]2 "^I"[EBeg] | "^v"[Fcb] "^ii"[Fca] "^V¹"[DBf] | "^I"[EGBe]2 [EBeg]/ "^V"[EBdf]/ | [B,Bdf]3 | "^I"[EGe] "^I¹"[GBe] "^I"[EGe] | "^vii°¹"[FAd]3/2 "^vi¹"[EGc]/ "^V¹"[DFB]/ "^vi7"[CEB]/ | "^♯iii°"[B,DBa]/ "^IV¹"[CEBa]/ "^V7¹"[DFBa]/ "^I"[EGBa]/ "^♯iii"[FABa]/ "^V7¹"[DFBa]/ | "^I"[EBg]3 | [EGBb] [EGeb] "^v°7²"[=EB_dg] | "^ii"[FAcf] [FAca] "^ii¹"[A,Fcc'] | "^I²"[B,GBe]2 "^V7"[B,FAd] | "^I"[E,EGe]3 |]
